X: 41499
T: Ugly Duckling, The
R: barndance
M: 4/4
K: Gmajor
d2dB G2 GA|Bcd2 ded2|d2dB G2GA|Bcd2 dedd|
ec~c2 ed~d2|eced d2~d2|ec~c2 eddc|Bcd2 A4:|
GFED D2BA|GFED DCB,D|EGDG EGDG|Bcd2 A4:|

